X: 1
T: Cromdel Hill
C:
R: reel
Z: 2013 John Chambers <jc:trillian.mit.edu>
S: Image of printed page from Susie Petrov, with partial chords.
M: C|
L: 1/8
K: G
D2 |\
"G"G2G2 "D7"BAAB | "G"G2GA GABG |\
"Am"cAcA "G"BGBG | "D7"dcBA GFED |
y3 |\
"G"G2G2 "D7"BAAB | "G"G2GA GABG |\
"Am"cAcA "G"BGBG | "D7"dcBA "G"G2 :|
|: (3def |\
"G"gedB "D7"cBA2 | "G"GedB "D"def2 |\
"Em"gedc BAGd | "Am"gedB "D7"A2d2 |
y3 |\
"G"gedB "D7"cBAd | "Em"gedB "D"def2 |\
"G(C)"gfed "C"cBAG | "D7"AGAB "G"G2 :|
